; generated by PrusaSlicer 2.2.0+win64 on 2020-05-30 at 18:24:38 UTC

; 

; external perimeters extrusion width = 0.45mm
; perimeters extrusion width = 0.45mm
; infill extrusion width = 0.45mm
; solid infill extrusion width = 0.45mm
; top infill extrusion width = 0.40mm
; first layer extrusion width = 0.42mm

M107
M190 S50 ; set bed temperature and wait for it to be reached
M104 S190 ; set temperature
G28 ; home all axes
G1 Z5 F5000 ; lift nozzle
M109 S190 ; set temperature and wait for it to be reached
G21 ; set units to millimeters
G90 ; use absolute coordinates
M82 ; use absolute distances for extrusion
G92 E0
; Filament gcode
G1 E-8.00000 F2400.00000
G92 E0
G1 Z0.500 F7800.000
G1 X83.172 Y194.559
G1 Z0.200
G1 E8.00000 F2400.00000
G1 F1800.000
G1 X82.890 Y193.051 E8.04089
G1 X82.873 Y182.269 E8.32824
G1 X83.003 Y181.123 E8.35898
G1 X83.314 Y180.020 E8.38954
G1 X83.731 Y179.101 E8.41642
G1 X84.277 Y178.245 E8.44347
G1 X84.939 Y177.476 E8.47052
G1 X85.704 Y176.808 E8.49758
G1 X86.550 Y176.259 E8.52446
G1 X87.471 Y175.832 E8.55151
G1 X88.443 Y175.541 E8.57857
G1 X89.447 Y175.390 E8.60562
G1 X310.007 Y175.369 E14.48379
G1 X311.169 Y175.465 E14.51488
G1 X312.300 Y175.750 E14.54596
G1 X313.364 Y176.212 E14.57687
G1 X314.344 Y176.845 E14.60796
G1 X315.208 Y177.628 E14.63905
G1 X315.932 Y178.543 E14.67014
G1 X316.495 Y179.557 E14.70105
G1 X316.888 Y180.655 E14.73213
G1 X317.062 Y181.508 E14.75533
G1 X317.130 Y182.369 E14.77835
G1 X317.113 Y193.014 E15.06206
G1 X316.970 Y194.006 E15.08877
G1 X316.688 Y194.974 E15.11564
G1 X316.272 Y195.893 E15.14252
G1 X315.731 Y196.744 E15.16940
G1 X314.958 Y197.626 E15.20067
G1 X314.045 Y198.373 E15.23210
G1 X276.932 Y223.449 E16.42581
G1 X276.149 Y223.899 E16.44988
G1 X275.315 Y224.245 E16.47396
G1 X274.450 Y224.482 E16.49785
G1 X273.556 Y224.610 E16.52193
G1 X126.993 Y224.631 E20.42798
G1 X125.837 Y224.536 E20.45889
G1 X124.409 Y224.144 E20.49838
G1 X123.086 Y223.461 E20.53804
G1 X85.786 Y198.253 E21.73785
G1 X84.653 Y197.219 E21.77874
G1 X83.771 Y195.972 E21.81945
G1 X83.196 Y194.614 E21.85874
G1 X83.542 Y194.468 F7800.000
G1 F1800.000
G1 X83.266 Y193.015 E21.89816
G1 X83.249 Y182.301 E22.18370
G1 X83.365 Y181.236 E22.21225
G1 X83.646 Y180.209 E22.24063
G1 X84.039 Y179.324 E22.26644
G1 X84.555 Y178.504 E22.29226
G1 X85.183 Y177.766 E22.31807
G1 X85.909 Y177.126 E22.34389
G1 X86.720 Y176.596 E22.36971
G1 X87.598 Y176.187 E22.39552
G1 X88.526 Y175.909 E22.42134
G1 X89.484 Y175.766 E22.44716
G1 X310.006 Y175.746 E28.32433
G1 X311.112 Y175.838 E28.35390
G1 X312.188 Y176.110 E28.38347
G1 X313.204 Y176.554 E28.41304
G1 X314.135 Y177.159 E28.44261
G1 X314.953 Y177.908 E28.47218
G1 X315.638 Y178.781 E28.50174
G1 X316.171 Y179.754 E28.53131
G1 X316.539 Y180.808 E28.56105
G1 X316.753 Y182.388 E28.60356
G1 X316.737 Y192.988 E28.88605
G1 X316.598 Y193.946 E28.91186
G1 X316.323 Y194.875 E28.93768
G1 X315.921 Y195.750 E28.96332
G1 X315.395 Y196.563 E28.98914
G1 X314.671 Y197.378 E29.01820
G1 X313.825 Y198.066 E29.04726
G1 X276.723 Y223.136 E30.24065
G1 X275.982 Y223.560 E30.26339
G1 X275.188 Y223.890 E30.28631
G1 X274.359 Y224.116 E30.30922
G1 X273.514 Y224.235 E30.33196
G1 X126.994 Y224.254 E34.23689
G1 X125.907 Y224.165 E34.26595
G1 X124.547 Y223.793 E34.30353
G1 X123.294 Y223.147 E34.34111
G1 X86.014 Y197.952 E35.54028
G1 X84.939 Y196.972 E35.57904
G1 X84.099 Y195.785 E35.61781
G1 X83.565 Y194.523 E35.65432
G1 X83.911 Y194.377 F7800.000
G1 F1800.000
G1 X83.641 Y192.975 E35.69237
G1 X83.625 Y182.325 E35.97620
G1 X83.728 Y181.346 E36.00245
G1 X83.981 Y180.394 E36.02869
G1 X84.347 Y179.548 E36.05328
G1 X84.833 Y178.763 E36.07787
G1 X85.426 Y178.057 E36.10245
G1 X86.120 Y177.439 E36.12721
G1 X86.891 Y176.932 E36.15179
G1 X87.732 Y176.540 E36.17655
G1 X88.616 Y176.275 E36.20113
G1 X89.529 Y176.140 E36.22572
G1 X310.006 Y176.123 E42.10170
G1 X311.056 Y176.211 E42.12977
G1 X312.082 Y176.472 E42.15800
G1 X313.046 Y176.897 E42.18607
G1 X313.926 Y177.475 E42.21414
G1 X314.700 Y178.190 E42.24220
G1 X315.349 Y179.027 E42.27044
G1 X315.847 Y179.955 E42.29851
G1 X316.186 Y180.952 E42.32657
G1 X316.376 Y182.409 E42.36573
G1 X316.360 Y192.961 E42.64696
G1 X316.226 Y193.880 E42.67171
G1 X315.962 Y194.764 E42.69630
G1 X315.573 Y195.601 E42.72089
G1 X315.063 Y196.377 E42.74564
G1 X314.392 Y197.123 E42.77238
G1 X313.608 Y197.759 E42.79929
G1 X276.518 Y222.819 E43.99224
G1 X275.815 Y223.222 E44.01384
G1 X275.067 Y223.533 E44.03544
G1 X274.285 Y223.746 E44.05704
G1 X273.476 Y223.859 E44.07881
G1 X127.000 Y223.877 E47.98257
G1 X125.975 Y223.794 E48.00997
G1 X124.683 Y223.441 E48.04565
G1 X123.494 Y222.827 E48.08134
G1 X86.246 Y197.655 E49.27947
G1 X85.223 Y196.725 E49.31631
G1 X84.428 Y195.602 E49.35298
G1 X83.934 Y194.433 E49.38681
G1 E41.38681 F2400.00000
G92 E0
G1 Z0.700 F7800.000
G1 X272.413 Y216.913
G1 Z0.200
G1 E8.00000 F2400.00000
G1 F1800.000
G1 X257.587 Y216.913 E8.39513
G1 X257.587 Y191.913 E9.06140
G1 X142.413 Y191.913 E12.13093
G1 X142.413 Y216.913 E12.79721
G1 X127.587 Y216.913 E13.19233
G1 X127.587 Y191.913 E13.85861
G1 X90.587 Y191.913 E14.84470
G1 X90.587 Y183.087 E15.07992
G1 X309.413 Y183.087 E20.91188
G1 X309.413 Y191.913 E21.14710
G1 X272.413 Y191.913 E22.13320
G1 X272.413 Y216.853 E22.79788
G1 E14.79788 F2400.00000
G92 E0
G1 Z0.700 F7800.000
G1 X272.790 Y192.290
G1 Z0.200
G1 E8.00000 F2400.00000
G1 F1800.000
G1 X272.790 Y217.290 E8.66628
G1 X257.210 Y217.290 E9.08150
G1 X257.210 Y192.290 E9.74778
G1 X142.790 Y192.290 E12.79721
G1 X142.790 Y217.290 E13.46349
G1 X127.210 Y217.290 E13.87871
G1 X127.210 Y192.290 E14.54499
G1 X90.210 Y192.290 E15.53108
G1 X90.210 Y182.710 E15.78640
G1 X309.790 Y182.710 E21.63846
G1 X309.790 Y192.290 E21.89378
G1 X272.850 Y192.290 E22.87827
G1 X272.391 Y192.324 F7800.000
G1 E14.87827 F2400.00000
G92 E0
G1 Z0.700 F7800.000
G1 X257.384 Y191.800
G1 Z0.200
G1 E8.00000 F2400.00000
G1 F1800.000
G1 X248.954 Y183.370 E8.31787
G1 X248.420 Y183.370 E8.33209
G1 X256.681 Y191.630 E8.64356
G1 X256.147 Y191.630 E8.65779
G1 X247.887 Y183.370 E8.96926
G1 X247.353 Y183.370 E8.98348
G1 X255.614 Y191.630 E9.29495
G1 X255.080 Y191.630 E9.30918
G1 X246.820 Y183.370 E9.62065
G1 X246.286 Y183.370 E9.63487
G1 X254.547 Y191.630 E9.94634
G1 X254.013 Y191.630 E9.96057
G1 X245.753 Y183.370 E10.27204
G1 X245.219 Y183.370 E10.28627
G1 X253.480 Y191.630 E10.59774
G1 X252.946 Y191.630 E10.61196
G1 X244.686 Y183.370 E10.92343
G1 X244.152 Y183.370 E10.93766
G1 X252.413 Y191.630 E11.24913
G1 X251.879 Y191.630 E11.26335
G1 X243.619 Y183.370 E11.57482
G1 X243.085 Y183.370 E11.58905
G1 X251.346 Y191.630 E11.90052
G1 X250.812 Y191.630 E11.91474
G1 X242.552 Y183.370 E12.22621
G1 X242.018 Y183.370 E12.24044
G1 X250.279 Y191.630 E12.55191
G1 X249.745 Y191.630 E12.56613
G1 X241.485 Y183.370 E12.87760
G1 X240.951 Y183.370 E12.89183
G1 X249.212 Y191.630 E13.20330
G1 X248.678 Y191.630 E13.21752
G1 X240.418 Y183.370 E13.52899
G1 X239.884 Y183.370 E13.54322
G1 X248.145 Y191.630 E13.85469
G1 X247.611 Y191.630 E13.86891
G1 X239.351 Y183.370 E14.18038
G1 X238.817 Y183.370 E14.19461
G1 X247.078 Y191.630 E14.50608
G1 X246.544 Y191.630 E14.52030
G1 X238.284 Y183.370 E14.83177
G1 X237.750 Y183.370 E14.84600
G1 X246.011 Y191.630 E15.15747
G1 X245.477 Y191.630 E15.17169
G1 X237.217 Y183.370 E15.48316
G1 X236.683 Y183.370 E15.49739
G1 X244.944 Y191.630 E15.80886
G1 X244.410 Y191.630 E15.82308
G1 X236.150 Y183.370 E16.13455
G1 X235.616 Y183.370 E16.14878
G1 X243.877 Y191.630 E16.46025
G1 X243.343 Y191.630 E16.47448
G1 X235.083 Y183.370 E16.78595
G1 X234.549 Y183.370 E16.80017
G1 X242.810 Y191.630 E17.11164
G1 X242.276 Y191.630 E17.12587
G1 X234.016 Y183.370 E17.43734
G1 X233.482 Y183.370 E17.45156
G1 X241.743 Y191.630 E17.76303
G1 X241.209 Y191.630 E17.77726
G1 X232.949 Y183.370 E18.08873
G1 X232.415 Y183.370 E18.10295
G1 X240.675 Y191.630 E18.41442
G1 X240.142 Y191.630 E18.42865
G1 X231.882 Y183.370 E18.74012
G1 X231.348 Y183.370 E18.75434
G1 X239.608 Y191.630 E19.06581
G1 X239.075 Y191.630 E19.08004
G1 X230.815 Y183.370 E19.39151
G1 X230.281 Y183.370 E19.40573
G1 X238.541 Y191.630 E19.71720
G1 X238.008 Y191.630 E19.73143
G1 X229.748 Y183.370 E20.04290
G1 X229.214 Y183.370 E20.05712
G1 X237.474 Y191.630 E20.36859
G1 X236.941 Y191.630 E20.38282
G1 X228.681 Y183.370 E20.69429
G1 X228.147 Y183.370 E20.70851
G1 X236.407 Y191.630 E21.01998
G1 X235.874 Y191.630 E21.03421
G1 X227.614 Y183.370 E21.34568
G1 X227.080 Y183.370 E21.35990
G1 X235.340 Y191.630 E21.67137
G1 X234.807 Y191.630 E21.68560
G1 X226.547 Y183.370 E21.99707
G1 X226.013 Y183.370 E22.01129
G1 X234.273 Y191.630 E22.32276
G1 X233.740 Y191.630 E22.33699
G1 X225.480 Y183.370 E22.64846
G1 X224.946 Y183.370 E22.66269
G1 X233.206 Y191.630 E22.97416
G1 X232.673 Y191.630 E22.98838
G1 X224.413 Y183.370 E23.29985
G1 X223.879 Y183.370 E23.31408
G1 X232.139 Y191.630 E23.62555
G1 X231.606 Y191.630 E23.63977
G1 X223.346 Y183.370 E23.95124
G1 X222.812 Y183.370 E23.96547
G1 X231.072 Y191.630 E24.27694
G1 X230.539 Y191.630 E24.29116
G1 X222.279 Y183.370 E24.60263
G1 X221.745 Y183.370 E24.61686
G1 X230.005 Y191.630 E24.92833
G1 X229.472 Y191.630 E24.94255
G1 X221.212 Y183.370 E25.25402
G1 X220.678 Y183.370 E25.26825
G1 X228.938 Y191.630 E25.57972
G1 X228.405 Y191.630 E25.59394
G1 X220.145 Y183.370 E25.90541
G1 X219.611 Y183.370 E25.91964
G1 X227.871 Y191.630 E26.23111
G1 X227.338 Y191.630 E26.24533
G1 X219.078 Y183.370 E26.55680
G1 X218.544 Y183.370 E26.57103
G1 X226.804 Y191.630 E26.88250
G1 X226.271 Y191.630 E26.89672
G1 X218.011 Y183.370 E27.20819
G1 X217.477 Y183.370 E27.22242
G1 X225.737 Y191.630 E27.53389
G1 X225.204 Y191.630 E27.54811
G1 X216.944 Y183.370 E27.85958
G1 X216.410 Y183.370 E27.87381
G1 X224.670 Y191.630 E28.18528
G1 X224.137 Y191.630 E28.19950
G1 X215.877 Y183.370 E28.51097
G1 X215.343 Y183.370 E28.52520
G1 X223.603 Y191.630 E28.83667
G1 X223.070 Y191.630 E28.85090
G1 X214.809 Y183.370 E29.16237
G1 X214.276 Y183.370 E29.17659
G1 X222.536 Y191.630 E29.48806
G1 X222.003 Y191.630 E29.50229
G1 X213.742 Y183.370 E29.81376
G1 X213.209 Y183.370 E29.82798
G1 X221.469 Y191.630 E30.13945
G1 X220.936 Y191.630 E30.15368
G1 X212.675 Y183.370 E30.46515
G1 X212.142 Y183.370 E30.47937
G1 X220.402 Y191.630 E30.79084
G1 X219.869 Y191.630 E30.80507
G1 X211.608 Y183.370 E31.11654
G1 X211.075 Y183.370 E31.13076
G1 X219.335 Y191.630 E31.44223
G1 X218.802 Y191.630 E31.45646
G1 X210.541 Y183.370 E31.76793
G1 X210.008 Y183.370 E31.78215
G1 X218.268 Y191.630 E32.09362
G1 X217.735 Y191.630 E32.10785
G1 X209.474 Y183.370 E32.41932
G1 X208.941 Y183.370 E32.43354
G1 X217.201 Y191.630 E32.74501
G1 X216.668 Y191.630 E32.75924
G1 X208.407 Y183.370 E33.07071
G1 X207.874 Y183.370 E33.08493
G1 X216.134 Y191.630 E33.39640
G1 X215.601 Y191.630 E33.41063
G1 X207.340 Y183.370 E33.72210
G1 X206.807 Y183.370 E33.73632
G1 X215.067 Y191.630 E34.04779
G1 X214.534 Y191.630 E34.06202
G1 X206.273 Y183.370 E34.37349
G1 X205.740 Y183.370 E34.38771
G1 X214.000 Y191.630 E34.69918
G1 X213.467 Y191.630 E34.71341
G1 X205.206 Y183.370 E35.02488
G1 X204.673 Y183.370 E35.03911
G1 X212.933 Y191.630 E35.35058
G1 X212.400 Y191.630 E35.36480
G1 X204.139 Y183.370 E35.67627
G1 X203.606 Y183.370 E35.69050
G1 X211.866 Y191.630 E36.00197
G1 X211.333 Y191.630 E36.01619
G1 X203.072 Y183.370 E36.32766
G1 X202.539 Y183.370 E36.34189
G1 X210.799 Y191.630 E36.65336
G1 X210.266 Y191.630 E36.66758
G1 X202.005 Y183.370 E36.97905
G1 X201.472 Y183.370 E36.99328
G1 X209.732 Y191.630 E37.30475
G1 X209.199 Y191.630 E37.31897
G1 X200.938 Y183.370 E37.63044
G1 X200.405 Y183.370 E37.64467
G1 X208.665 Y191.630 E37.95614
G1 X208.132 Y191.630 E37.97036
G1 X199.871 Y183.370 E38.28183
G1 X199.338 Y183.370 E38.29606
G1 X207.598 Y191.630 E38.60753
G1 X207.064 Y191.630 E38.62175
G1 X198.804 Y183.370 E38.93322
G1 X198.271 Y183.370 E38.94745
G1 X206.531 Y191.630 E39.25892
G1 X205.997 Y191.630 E39.27314
G1 X197.737 Y183.370 E39.58461
G1 X197.204 Y183.370 E39.59884
G1 X205.464 Y191.630 E39.91031
G1 X204.930 Y191.630 E39.92453
G1 X196.670 Y183.370 E40.23600
G1 X196.137 Y183.370 E40.25023
G1 X204.397 Y191.630 E40.56170
G1 X203.863 Y191.630 E40.57592
G1 X195.603 Y183.370 E40.88740
G1 X195.070 Y183.370 E40.90162
G1 X203.330 Y191.630 E41.21309
G1 X202.796 Y191.630 E41.22732
G1 X194.536 Y183.370 E41.53879
G1 X194.003 Y183.370 E41.55301
G1 X202.263 Y191.630 E41.86448
G1 X201.729 Y191.630 E41.87871
G1 X193.469 Y183.370 E42.19018
G1 X192.936 Y183.370 E42.20440
G1 X201.196 Y191.630 E42.51587
G1 X200.662 Y191.630 E42.53010
G1 X192.402 Y183.370 E42.84157
G1 X191.869 Y183.370 E42.85579
G1 X200.129 Y191.630 E43.16726
G1 X199.595 Y191.630 E43.18149
G1 X191.335 Y183.370 E43.49296
G1 X190.802 Y183.370 E43.50718
G1 X199.062 Y191.630 E43.81865
G1 X198.528 Y191.630 E43.83288
G1 X190.268 Y183.370 E44.14435
G1 X189.735 Y183.370 E44.15857
G1 X197.995 Y191.630 E44.47004
G1 X197.461 Y191.630 E44.48427
G1 X189.201 Y183.370 E44.79574
G1 X188.668 Y183.370 E44.80996
G1 X196.928 Y191.630 E45.12143
G1 X196.394 Y191.630 E45.13566
G1 X188.134 Y183.370 E45.44713
G1 X187.601 Y183.370 E45.46135
G1 X195.861 Y191.630 E45.77282
G1 X195.327 Y191.630 E45.78705
G1 X187.067 Y183.370 E46.09852
G1 X186.534 Y183.370 E46.11274
G1 X194.794 Y191.630 E46.42422
G1 X194.260 Y191.630 E46.43844
G1 X186.000 Y183.370 E46.74991
G1 X185.467 Y183.370 E46.76414
G1 X193.727 Y191.630 E47.07561
G1 X193.193 Y191.630 E47.08983
G1 X184.933 Y183.370 E47.40130
G1 X184.400 Y183.370 E47.41553
G1 X192.660 Y191.630 E47.72700
G1 X192.126 Y191.630 E47.74122
G1 X183.866 Y183.370 E48.05269
G1 X183.333 Y183.370 E48.06692
G1 X191.593 Y191.630 E48.37839
G1 X191.059 Y191.630 E48.39261
G1 X182.799 Y183.370 E48.70408
G1 X182.266 Y183.370 E48.71831
G1 X190.526 Y191.630 E49.02978
G1 X189.992 Y191.630 E49.04400
G1 X181.732 Y183.370 E49.35547
G1 X181.198 Y183.370 E49.36970
G1 X189.459 Y191.630 E49.68117
G1 X188.925 Y191.630 E49.69539
G1 X180.665 Y183.370 E50.00686
G1 X180.131 Y183.370 E50.02109
G1 X188.392 Y191.630 E50.33256
G1 X187.858 Y191.630 E50.34678
G1 X179.598 Y183.370 E50.65825
G1 X179.064 Y183.370 E50.67248
G1 X187.325 Y191.630 E50.98395
G1 X186.791 Y191.630 E50.99817
G1 X178.531 Y183.370 E51.30964
G1 X177.997 Y183.370 E51.32387
G1 X186.258 Y191.630 E51.63534
G1 X185.724 Y191.630 E51.64956
G1 X177.464 Y183.370 E51.96104
G1 X176.930 Y183.370 E51.97526
G1 X185.191 Y191.630 E52.28673
G1 X184.657 Y191.630 E52.30096
G1 X176.397 Y183.370 E52.61243
G1 X175.863 Y183.370 E52.62665
G1 X184.124 Y191.630 E52.93812
G1 X183.590 Y191.630 E52.95235
G1 X175.330 Y183.370 E53.26382
G1 X174.796 Y183.370 E53.27804
G1 X183.057 Y191.630 E53.58951
G1 X182.523 Y191.630 E53.60374
G1 X174.263 Y183.370 E53.91521
G1 X173.729 Y183.370 E53.92943
G1 X181.990 Y191.630 E54.24090
G1 X181.456 Y191.630 E54.25513
G1 X173.196 Y183.370 E54.56660
G1 X172.662 Y183.370 E54.58082
G1 X180.923 Y191.630 E54.89229
G1 X180.389 Y191.630 E54.90652
G1 X172.129 Y183.370 E55.21799
G1 X171.595 Y183.370 E55.23221
G1 X179.856 Y191.630 E55.54368
G1 X179.322 Y191.630 E55.55791
G1 X171.062 Y183.370 E55.86938
G1 X170.528 Y183.370 E55.88360
G1 X178.789 Y191.630 E56.19507
G1 X178.255 Y191.630 E56.20930
G1 X169.995 Y183.370 E56.52077
G1 X169.461 Y183.370 E56.53499
G1 X177.722 Y191.630 E56.84646
G1 X177.188 Y191.630 E56.86069
G1 X168.928 Y183.370 E57.17216
G1 X168.394 Y183.370 E57.18639
G1 X176.655 Y191.630 E57.49786
G1 X176.121 Y191.630 E57.51208
G1 X167.861 Y183.370 E57.82355
G1 X167.327 Y183.370 E57.83778
G1 X175.588 Y191.630 E58.14925
G1 X175.054 Y191.630 E58.16347
G1 X166.794 Y183.370 E58.47494
G1 X166.260 Y183.370 E58.48917
G1 X174.521 Y191.630 E58.80064
G1 X173.987 Y191.630 E58.81486
G1 X165.727 Y183.370 E59.12633
G1 X165.193 Y183.370 E59.14056
G1 X173.454 Y191.630 E59.45203
G1 X172.920 Y191.630 E59.46625
G1 X164.660 Y183.370 E59.77772
G1 X164.126 Y183.370 E59.79195
G1 X172.386 Y191.630 E60.10342
G1 X171.853 Y191.630 E60.11764
G1 X163.593 Y183.370 E60.42911
G1 X163.059 Y183.370 E60.44334
G1 X171.319 Y191.630 E60.75481
G1 X170.786 Y191.630 E60.76903
G1 X162.526 Y183.370 E61.08050
G1 X161.992 Y183.370 E61.09473
G1 X170.252 Y191.630 E61.40620
