; generated by PrusaSlicer 2.2.0+linux-x64 on 2020-06-10 at 14:35:09 UTC

; 

; external perimeters extrusion width = 0.45mm
; perimeters extrusion width = 0.45mm
; infill extrusion width = 0.45mm
; solid infill extrusion width = 0.45mm
; top infill extrusion width = 0.40mm
; first layer extrusion width = 0.42mm

M107
M190 S50 ; set bed temperature and wait for it to be reached
M104 S190 ; set temperature
G28 ; home all axes
G1 Z5 F5000 ; lift nozzle
M109 S190 ; set temperature and wait for it to be reached
G21 ; set units to millimeters
G90 ; use absolute coordinates
M82 ; use absolute distances for extrusion
G92 E0
; Filament gcode
G1 E-12.00000 F2400.00000
G92 E0
G1 Z1.000 F7800.000
G1 X158.183 Y163.321
G1 Z0.200
G1 E12.00000 F2400.00000
G1 F1800.000
G1 X160.167 Y163.115 E12.05317
G1 X239.607 Y163.111 E14.17031
G1 X240.695 Y163.162 E14.19934
G1 X241.778 Y163.312 E14.22850
G1 X242.843 Y163.562 E14.25766
G1 X243.881 Y163.909 E14.28682
G1 X244.882 Y164.349 E14.31596
G1 X245.840 Y164.880 E14.34514
G1 X246.743 Y165.496 E14.37428
G1 X247.581 Y166.189 E14.40327
G1 X248.358 Y166.960 E14.43245
G1 X249.059 Y167.798 E14.46157
G1 X249.682 Y168.700 E14.49076
G1 X250.215 Y169.646 E14.51971
G1 X250.665 Y170.652 E14.54907
G1 X251.015 Y171.680 E14.57803
G1 X251.429 Y173.813 E14.63593
G1 X251.488 Y174.966 E14.66669
G1 X251.449 Y225.976 E16.02616
G1 X251.293 Y227.153 E16.05781
G1 X251.025 Y228.288 E16.08889
G1 X250.655 Y229.374 E16.11947
G1 X250.130 Y230.516 E16.15296
G1 X249.543 Y231.512 E16.18379
G1 X248.589 Y232.778 E16.22603
G1 X247.722 Y233.681 E16.25939
G1 X246.869 Y234.407 E16.28923
G1 X245.188 Y235.491 E16.34256
G1 X243.707 Y236.155 E16.38581
G1 X241.817 Y236.679 E16.43807
G1 X239.832 Y236.885 E16.49126
G1 X160.242 Y236.887 E18.61243
G1 X159.011 Y236.805 E18.64530
G1 X157.425 Y236.508 E18.68832
G1 X156.199 Y236.122 E18.72258
G1 X155.101 Y235.643 E18.75450
G1 X154.070 Y235.063 E18.78601
G1 X153.014 Y234.313 E18.82054
G1 X151.824 Y233.231 E18.86339
G1 X150.993 Y232.269 E18.89727
G1 X149.915 Y230.599 E18.95025
G1 X149.257 Y229.138 E18.99298
G1 X148.728 Y227.256 E19.04506
G1 X148.519 Y225.338 E19.09650
G1 X148.515 Y174.769 E20.44420
G1 X148.599 Y173.585 E20.47584
G1 X148.898 Y171.999 E20.51886
G1 X149.283 Y170.786 E20.55277
G1 X149.766 Y169.683 E20.58487
G1 X150.340 Y168.665 E20.61600
G1 X151.088 Y167.614 E20.65039
G1 X152.168 Y166.425 E20.69321
G1 X153.131 Y165.593 E20.72712
G1 X154.813 Y164.509 E20.78045
G1 X156.293 Y163.846 E20.82367
G1 X158.125 Y163.337 E20.87435
G1 X158.226 Y163.699 F7800.000
G1 F1800.000
G1 X160.182 Y163.492 E20.92679
G1 X239.606 Y163.488 E23.04353
G1 X241.711 Y163.683 E23.09987
G1 X243.747 Y164.261 E23.15627
G1 X245.638 Y165.199 E23.21252
G1 X247.330 Y166.470 E23.26891
G1 X248.760 Y168.029 E23.32530
G1 X249.882 Y169.824 E23.38171
G1 X250.656 Y171.794 E23.43811
G1 X251.055 Y173.865 E23.49435
G1 X251.111 Y174.971 E23.52386
G1 X251.074 Y225.933 E24.88206
G1 X250.922 Y227.080 E24.91288
G1 X250.664 Y228.180 E24.94299
G1 X250.306 Y229.232 E24.97260
G1 X249.797 Y230.338 E25.00506
G1 X249.231 Y231.300 E25.03480
G1 X248.299 Y232.537 E25.07608
G1 X247.454 Y233.416 E25.10857
G1 X246.622 Y234.121 E25.13764
G1 X244.998 Y235.165 E25.18908
G1 X243.573 Y235.802 E25.23069
G1 X241.745 Y236.309 E25.28126
G1 X239.817 Y236.508 E25.33291
G1 X160.252 Y236.510 E27.45340
G1 X159.065 Y236.432 E27.48513
G1 X157.512 Y236.142 E27.52722
G1 X156.324 Y235.766 E27.56042
G1 X155.267 Y235.304 E27.59117
G1 X154.274 Y234.746 E27.62151
G1 X153.251 Y234.019 E27.65498
G1 X152.087 Y232.960 E27.69691
G1 X151.279 Y232.022 E27.72991
G1 X150.238 Y230.404 E27.78118
G1 X149.607 Y228.997 E27.82228
G1 X149.097 Y227.176 E27.87268
G1 X148.895 Y225.313 E27.92262
G1 X148.891 Y174.788 E29.26917
G1 X148.972 Y173.639 E29.29987
G1 X149.263 Y172.093 E29.34179
G1 X149.639 Y170.912 E29.37482
G1 X150.105 Y169.849 E29.40575
G1 X150.657 Y168.869 E29.43573
G1 X151.385 Y167.845 E29.46923
G1 X152.439 Y166.687 E29.51095
G1 X153.378 Y165.878 E29.54399
G1 X155.002 Y164.835 E29.59543
G1 X156.426 Y164.198 E29.63700
G1 X158.168 Y163.715 E29.68517
G1 X158.268 Y164.077 F7800.000
G1 F1800.000
G1 X160.204 Y163.869 E29.73705
G1 X239.606 Y163.865 E31.85322
G1 X241.644 Y164.055 E31.90777
G1 X243.614 Y164.614 E31.96233
G1 X245.442 Y165.521 E32.01673
G1 X247.083 Y166.755 E32.07144
G1 X248.466 Y168.264 E32.12599
G1 X249.549 Y170.001 E32.18055
G1 X250.296 Y171.907 E32.23510
G1 X250.682 Y173.923 E32.28983
G1 X250.734 Y174.966 E32.31766
G1 X250.699 Y225.892 E33.67489
G1 X250.552 Y227.008 E33.70488
G1 X250.304 Y228.066 E33.73384
G1 X249.959 Y229.084 E33.76249
G1 X249.464 Y230.161 E33.79407
G1 X248.673 Y231.449 E33.83437
G1 X248.005 Y232.300 E33.86320
G1 X247.191 Y233.145 E33.89448
G1 X246.376 Y233.835 E33.92293
G1 X244.810 Y234.838 E33.97250
G1 X243.440 Y235.449 E34.01247
G1 X241.672 Y235.939 E34.06136
G1 X239.796 Y236.131 E34.11163
G1 X160.263 Y236.133 E36.23128
G1 X159.117 Y236.058 E36.26188
G1 X157.606 Y235.776 E36.30286
G1 X156.456 Y235.413 E36.33499
G1 X155.433 Y234.965 E36.36475
G1 X154.478 Y234.429 E36.39394
G1 X153.487 Y233.725 E36.42634
G1 X152.354 Y232.694 E36.46716
G1 X151.565 Y231.776 E36.49943
G1 X150.565 Y230.215 E36.54883
G1 X149.959 Y228.863 E36.58831
G1 X149.466 Y227.103 E36.63703
G1 X149.272 Y225.283 E36.68580
G1 X149.268 Y174.801 E38.03122
G1 X149.345 Y173.692 E38.06083
G1 X149.630 Y172.181 E38.10181
G1 X149.992 Y171.044 E38.13361
G1 X150.443 Y170.016 E38.16354
G1 X150.978 Y169.068 E38.19255
G1 X151.680 Y168.080 E38.22485
G1 X152.705 Y166.955 E38.26542
G1 X153.625 Y166.164 E38.29773
G1 X155.191 Y165.161 E38.34730
G1 X156.560 Y164.551 E38.38724
G1 X158.211 Y164.093 E38.43290
G1 E26.43290 F2400.00000
G92 E0
G1 Z1.200 F7800.000
G1 X203.129 Y219.803
G1 Z0.200
G1 E12.00000 F2400.00000
G1 F1800.000
G1 X202.746 Y220.049 E12.01215
G1 X202.451 Y220.159 E12.02052
G1 X202.000 Y220.224 E12.03267
G1 X201.549 Y220.159 E12.04482
G1 X201.254 Y220.049 E12.05319
G1 X200.871 Y219.803 E12.06534
G1 X200.573 Y219.459 E12.07748
G1 X200.439 Y219.213 E12.08494
G1 X200.341 Y218.951 E12.09239
G1 X200.286 Y218.569 E12.10268
G1 X200.286 Y181.431 E13.09245
G1 X200.346 Y181.014 E13.10367
G1 X200.535 Y180.600 E13.11581
G1 X200.724 Y180.348 E13.12419
G1 X201.042 Y180.073 E13.13541
G1 X201.287 Y179.939 E13.14286
G1 X201.548 Y179.841 E13.15029
G1 X201.992 Y179.777 E13.16224
G1 X202.484 Y179.845 E13.17547
G1 X202.900 Y180.035 E13.18768
G1 X203.152 Y180.223 E13.19606
G1 X203.428 Y180.542 E13.20727
G1 X203.578 Y180.817 E13.21565
G1 X203.697 Y181.221 E13.22686
G1 X203.714 Y181.466 E13.23340
G1 X203.714 Y218.569 E14.22224
G1 X203.659 Y218.951 E14.23253
G1 X203.562 Y219.213 E14.23999
G1 X203.427 Y219.459 E14.24744
G1 X203.168 Y219.758 E14.25799
G1 X202.880 Y219.515 F7800.000
G1 F1800.000
G1 X202.576 Y219.710 E14.26761
G1 X202.357 Y219.792 E14.27382
G1 X202.000 Y219.843 E14.28344
G1 X201.643 Y219.792 E14.29307
G1 X201.424 Y219.710 E14.29928
G1 X201.121 Y219.515 E14.30890
G1 X200.884 Y219.242 E14.31852
G1 X200.782 Y219.056 E14.32418
G1 X200.708 Y218.857 E14.32983
G1 X200.663 Y218.542 E14.33832
G1 X200.663 Y181.458 E15.32665
G1 X200.711 Y181.122 E15.33571
G1 X200.861 Y180.793 E15.34533
G1 X201.001 Y180.607 E15.35155
G1 X201.258 Y180.384 E15.36060
G1 X201.444 Y180.282 E15.36625
G1 X201.642 Y180.208 E15.37189
G1 X201.993 Y180.157 E15.38135
G1 X202.377 Y180.211 E15.39168
G1 X202.707 Y180.361 E15.40133
G1 X202.894 Y180.501 E15.40755
G1 X203.116 Y180.758 E15.41660
G1 X203.228 Y180.963 E15.42282
G1 X203.323 Y181.288 E15.43187
G1 X203.337 Y181.479 E15.43697
G1 X203.337 Y218.542 E16.42474
G1 X203.292 Y218.857 E16.43323
G1 X203.218 Y219.056 E16.43888
G1 X203.116 Y219.242 E16.44454
G1 X202.919 Y219.470 E16.45256
G1 X202.874 Y218.899 F7800.000
G1 F1800.000
G1 X202.804 Y219.026 E16.45641
G1 X202.630 Y219.227 E16.46351
G1 X202.406 Y219.371 E16.47060
G1 X202.264 Y219.424 E16.47466
G1 X202.000 Y219.462 E16.48175
G1 X201.737 Y219.424 E16.48885
G1 X201.594 Y219.371 E16.49290
G1 X201.370 Y219.227 E16.50000
G1 X201.196 Y219.026 E16.50709
G1 X201.076 Y218.764 E16.51478
G1 X201.040 Y218.515 E16.52147
G1 X201.040 Y181.485 E17.50837
G1 X201.077 Y181.229 E17.51526
G1 X201.187 Y180.987 E17.52236
G1 X201.279 Y180.865 E17.52641
G1 X201.474 Y180.696 E17.53330
G1 X201.601 Y180.626 E17.53716
G1 X201.736 Y180.576 E17.54101
G1 X201.995 Y180.538 E17.54796
G1 X202.271 Y180.577 E17.55539
G1 X202.513 Y180.687 E17.56250
G1 X202.635 Y180.779 E17.56656
G1 X202.804 Y180.974 E17.57345
G1 X202.877 Y181.108 E17.57750
G1 X202.950 Y181.356 E17.58440
G1 X202.960 Y181.493 E17.58805
G1 X202.960 Y218.515 E18.57474
G1 X202.924 Y218.764 E18.58143
G1 X202.895 Y218.843 E18.58369
G1 X202.960 Y219.015 F7800.000
G1 E6.58369 F2400.00000
G92 E0
G1 Z1.200 F7800.000
G1 X204.871 Y219.803
G1 Z0.200
G1 E12.00000 F2400.00000
G1 F1800.000
G1 X204.573 Y219.459 E12.01215
G1 X204.439 Y219.213 E12.01960
G1 X204.341 Y218.951 E12.02705
G1 X204.286 Y218.569 E12.03734
G1 X204.286 Y181.431 E13.02711
G1 X204.346 Y181.014 E13.03833
G1 X204.535 Y180.600 E13.05048
G1 X204.723 Y180.349 E13.05883
G1 X205.035 Y180.078 E13.06984
G1 X205.284 Y179.940 E13.07744
G1 X205.548 Y179.841 E13.08495
G1 X205.992 Y179.777 E13.09691
G1 X206.484 Y179.845 E13.11013
G1 X206.900 Y180.035 E13.12234
G1 X207.152 Y180.223 E13.13072
G1 X207.428 Y180.542 E13.14193
G1 X207.578 Y180.817 E13.15031
G1 X207.697 Y181.221 E13.16152
G1 X207.714 Y181.466 E13.16806
G1 X207.714 Y218.569 E14.15691
G1 X207.659 Y218.951 E14.16719
G1 X207.562 Y219.213 E14.17465
G1 X207.427 Y219.459 E14.18210
G1 X207.129 Y219.803 E14.19425
G1 X206.746 Y220.049 E14.20639
G1 X206.451 Y220.159 E14.21477
G1 X206.000 Y220.224 E14.22692
G1 X205.549 Y220.159 E14.23906
G1 X205.254 Y220.049 E14.24744
G1 X204.922 Y219.835 E14.25798
G1 X205.121 Y219.515 F7800.000
G1 F1800.000
G1 X204.884 Y219.242 E14.26761
G1 X204.782 Y219.056 E14.27326
G1 X204.708 Y218.857 E14.27891
G1 X204.663 Y218.542 E14.28740
G1 X204.663 Y181.458 E15.27573
G1 X204.711 Y181.122 E15.28479
G1 X204.861 Y180.793 E15.29441
G1 X205.001 Y180.607 E15.30062
G1 X205.252 Y180.388 E15.30949
G1 X205.442 Y180.283 E15.31529
G1 X205.642 Y180.208 E15.32097
G1 X205.993 Y180.157 E15.33043
G1 X206.377 Y180.211 E15.34076
G1 X206.707 Y180.361 E15.35042
G1 X206.894 Y180.501 E15.35663
G1 X207.116 Y180.758 E15.36569
G1 X207.228 Y180.963 E15.37190
G1 X207.323 Y181.288 E15.38096
G1 X207.337 Y181.479 E15.38605
G1 X207.337 Y218.542 E16.37382
G1 X207.292 Y218.857 E16.38231
G1 X207.218 Y219.056 E16.38796
G1 X207.116 Y219.242 E16.39362
G1 X206.880 Y219.515 E16.40324
G1 X206.576 Y219.710 E16.41286
G1 X206.357 Y219.792 E16.41907
G1 X206.000 Y219.843 E16.42869
G1 X205.643 Y219.792 E16.43832
G1 X205.424 Y219.710 E16.44453
G1 X205.171 Y219.548 E16.45255
G1 X205.126 Y218.899 F7800.000
G1 F1800.000
G1 X205.076 Y218.764 E16.45641
G1 X205.040 Y218.515 E16.46310
G1 X205.040 Y181.485 E17.44999
G1 X205.077 Y181.229 E17.45689
G1 X205.187 Y180.987 E17.46398
G1 X205.279 Y180.865 E17.46803
G1 X205.470 Y180.699 E17.47478
G1 X205.600 Y180.627 E17.47877
G1 X205.736 Y180.576 E17.48263
G1 X205.995 Y180.538 E17.48959
G1 X206.271 Y180.577 E17.49702
G1 X206.513 Y180.687 E17.50412
G1 X206.635 Y180.779 E17.50818
G1 X206.804 Y180.974 E17.51507
G1 X206.877 Y181.108 E17.51913
G1 X206.950 Y181.356 E17.52602
G1 X206.960 Y181.493 E17.52967
G1 X206.960 Y218.515 E18.51637
G1 X206.924 Y218.764 E18.52306
G1 X206.804 Y219.026 E18.53075
G1 X206.630 Y219.227 E18.53784
G1 X206.406 Y219.371 E18.54494
G1 X206.264 Y219.424 E18.54899
G1 X206.000 Y219.462 E18.55609
G1 X205.737 Y219.424 E18.56318
G1 X205.594 Y219.371 E18.56724
G1 X205.370 Y219.227 E18.57434
G1 X205.196 Y219.026 E18.58143
G1 X205.155 Y218.952 E18.58368
G1 X204.982 Y218.889 F7800.000
G1 E6.58368 F2400.00000
G92 E0
G1 Z1.200 F7800.000
G1 X208.871 Y219.803
G1 Z0.200
G1 E12.00000 F2400.00000
G1 F1800.000
G1 X208.573 Y219.459 E12.01215
G1 X208.439 Y219.213 E12.01960
G1 X208.341 Y218.951 E12.02705
G1 X208.286 Y218.569 E12.03734
G1 X208.286 Y181.431 E13.02711
G1 X208.346 Y181.014 E13.03833
G1 X208.535 Y180.600 E13.05048
G1 X208.724 Y180.348 E13.05886
G1 X209.042 Y180.073 E13.07007
G1 X209.287 Y179.939 E13.07752
G1 X209.548 Y179.841 E13.08495
G1 X209.992 Y179.777 E13.09691
G1 X210.483 Y179.845 E13.11011
G1 X210.893 Y180.031 E13.12212
G1 X211.122 Y180.201 E13.12971
G1 X211.322 Y180.400 E13.13724
G1 X211.568 Y180.784 E13.14939
G1 X211.697 Y181.221 E13.16154
G1 X211.714 Y181.466 E13.16807
G1 X211.714 Y218.534 E14.15600
G1 X211.697 Y218.779 E14.16253
G1 X211.568 Y219.216 E14.17468
G1 X211.322 Y219.600 E14.18683
G1 X211.100 Y219.822 E14.19520
G1 X210.716 Y220.068 E14.20734
G1 X210.279 Y220.197 E14.21950
G1 X209.965 Y220.219 E14.22788
G1 X209.549 Y220.159 E14.23909
G1 X209.254 Y220.049 E14.24746
G1 X208.922 Y219.835 E14.25801
G1 X209.121 Y219.515 F7800.000
G1 F1800.000
G1 X208.884 Y219.242 E14.26763
G1 X208.782 Y219.056 E14.27328
G1 X208.708 Y218.857 E14.27894
G1 X208.663 Y218.542 E14.28743
G1 X208.663 Y181.458 E15.27576
G1 X208.711 Y181.122 E15.28482
G1 X208.861 Y180.793 E15.29444
G1 X209.001 Y180.607 E15.30065
G1 X209.258 Y180.384 E15.30971
G1 X209.444 Y180.282 E15.31536
G1 X209.642 Y180.208 E15.32100
G1 X209.993 Y180.157 E15.33045
G1 X210.377 Y180.211 E15.34077
G1 X210.701 Y180.358 E15.35025
G1 X210.875 Y180.487 E15.35604
G1 X211.027 Y180.638 E15.36174
G1 X211.222 Y180.942 E15.37136
G1 X211.324 Y181.288 E15.38099
G1 X211.337 Y181.479 E15.38608
G1 X211.337 Y218.521 E16.37329
G1 X211.324 Y218.712 E16.37838
G1 X211.222 Y219.058 E16.38801
G1 X211.027 Y219.362 E16.39763
G1 X210.862 Y219.527 E16.40384
G1 X210.558 Y219.722 E16.41346
G1 X210.212 Y219.824 E16.42309
G1 X209.979 Y219.840 E16.42930
G1 X209.643 Y219.792 E16.43835
G1 X209.424 Y219.710 E16.44457
G1 X209.171 Y219.548 E16.45259
G1 X209.126 Y218.899 F7800.000
G1 F1800.000
G1 X209.076 Y218.764 E16.45645
G1 X209.040 Y218.515 E16.46314
G1 X209.040 Y181.485 E17.45003
G1 X209.077 Y181.229 E17.45692
G1 X209.187 Y180.987 E17.46402
G1 X209.279 Y180.865 E17.46808
G1 X209.474 Y180.696 E17.47497
G1 X209.601 Y180.626 E17.47882
G1 X209.736 Y180.576 E17.48267
G1 X209.995 Y180.538 E17.48962
G1 X210.270 Y180.577 E17.49705
G1 X210.508 Y180.685 E17.50401
G1 X210.629 Y180.774 E17.50800
G1 X210.731 Y180.876 E17.51187
G1 X210.875 Y181.100 E17.51896
G1 X210.950 Y181.356 E17.52606
G1 X210.960 Y181.493 E17.52972
G1 X210.960 Y218.507 E18.51621
G1 X210.950 Y218.644 E18.51986
G1 X210.875 Y218.900 E18.52696
G1 X210.731 Y219.124 E18.53405
G1 X210.624 Y219.231 E18.53811
G1 X210.400 Y219.375 E18.54520
G1 X210.144 Y219.450 E18.55230
G1 X209.992 Y219.461 E18.55636
G1 X209.736 Y219.424 E18.56325
G1 X209.594 Y219.371 E18.56730
G1 X209.370 Y219.227 E18.57440
G1 X209.196 Y219.026 E18.58149
G1 X209.155 Y218.952 E18.58375
G1 X208.982 Y218.889 F7800.000
G1 E6.58375 F2400.00000
G92 E0
G1 Z1.200 F7800.000
G1 X212.432 Y219.216
G1 Z0.200
G1 E12.00000 F2400.00000
G1 F1800.000
G1 X212.303 Y218.779 E12.01215
G1 X212.286 Y218.534 E12.01869
G1 X212.286 Y181.431 E13.00753
G1 X212.341 Y181.049 E13.01782
G1 X212.451 Y180.754 E13.02620
G1 X212.697 Y180.371 E13.03834
G1 X213.041 Y180.073 E13.05049
G1 X213.287 Y179.939 E13.05794
G1 X213.548 Y179.841 E13.06538
G1 X213.992 Y179.777 E13.07733
G1 X214.483 Y179.845 E13.09053
G1 X214.893 Y180.031 E13.10254
G1 X215.122 Y180.201 E13.11014
G1 X215.322 Y180.400 E13.11766
G1 X215.568 Y180.784 E13.12981
G1 X215.697 Y181.221 E13.14196
G1 X215.714 Y181.466 E13.14850
G1 X215.714 Y218.534 E14.13642
G1 X215.697 Y218.779 E14.14295
G1 X215.568 Y219.216 E14.15511
G1 X215.322 Y219.600 E14.16725
G1 X215.100 Y219.822 E14.17562
G1 X214.716 Y220.068 E14.18776
G1 X214.279 Y220.197 E14.19992
G1 X214.000 Y220.217 E14.20737
G1 X213.721 Y220.197 E14.21482
G1 X213.317 Y220.078 E14.22604
G1 X213.041 Y219.927 E14.23442
G1 X212.697 Y219.629 E14.24656
G1 X212.464 Y219.267 E14.25803
G1 X212.778 Y219.058 F7800.000
G1 F1800.000
G1 X212.677 Y218.712 E14.26766
G1 X212.663 Y218.521 E14.27275
G1 X212.663 Y181.458 E15.26052
G1 X212.708 Y181.143 E15.26901
G1 X212.790 Y180.924 E15.27523
G1 X212.985 Y180.621 E15.28485
G1 X213.258 Y180.384 E15.29447
G1 X213.444 Y180.282 E15.30012
