; generated by PrusaSlicer 2.2.0+linux-x64 on 2020-06-10 at 14:34:35 UTC

; 

; external perimeters extrusion width = 0.45mm
; perimeters extrusion width = 0.45mm
; infill extrusion width = 0.45mm
; solid infill extrusion width = 0.45mm
; top infill extrusion width = 0.40mm
; first layer extrusion width = 0.42mm

M107
M190 S50 ; set bed temperature and wait for it to be reached
M104 S190 ; set temperature
G28 ; home all axes
G1 Z5 F5000 ; lift nozzle
M109 S190 ; set temperature and wait for it to be reached
G21 ; set units to millimeters
G90 ; use absolute coordinates
M82 ; use absolute distances for extrusion
G92 E0
; Filament gcode
G1 E-12.00000 F2400.00000
G92 E0
G1 Z1.000 F7800.000
G1 X172.007 Y141.221
G1 Z0.200
G1 E12.00000 F2400.00000
G1 F1800.000
G1 X172.477 Y140.465 E12.02372
G1 X173.042 Y139.769 E12.04762
G1 X173.685 Y139.154 E12.07134
G1 X174.400 Y138.623 E12.09506
G1 X175.175 Y138.186 E12.11878
G1 X175.999 Y137.848 E12.14250
G1 X176.858 Y137.616 E12.16623
G1 X177.746 Y137.492 E12.19012
G1 X221.692 Y137.471 E13.36135
G1 X222.685 Y137.542 E13.38788
G1 X223.659 Y137.750 E13.41441
G1 X224.600 Y138.094 E13.44111
G1 X225.478 Y138.563 E13.46764
G1 X226.282 Y139.150 E13.49417
G1 X226.996 Y139.843 E13.52070
G1 X227.607 Y140.629 E13.54723
G1 X228.106 Y141.498 E13.57393
G1 X250.647 Y196.605 E15.16073
G1 X251.206 Y198.438 E15.21180
G1 X251.420 Y199.732 E15.24675
G1 X251.488 Y200.930 E15.27874
G1 X251.488 Y251.129 E16.61660
G1 X251.404 Y252.393 E16.65035
G1 X251.094 Y254.031 E16.69477
G1 X250.689 Y255.285 E16.72991
G1 X250.142 Y256.490 E16.76516
G1 X249.255 Y257.931 E16.81027
G1 X248.393 Y258.999 E16.84685
G1 X247.422 Y259.947 E16.88301
G1 X246.033 Y260.994 E16.92936
G1 X244.765 Y261.704 E16.96812
G1 X243.172 Y262.334 E17.01376
G1 X241.830 Y262.675 E17.05065
G1 X240.445 Y262.853 E17.08787
G1 X160.288 Y262.886 E19.22415
G1 X159.011 Y262.803 E19.25825
G1 X157.373 Y262.493 E19.30267
G1 X156.118 Y262.089 E19.33782
G1 X154.908 Y261.540 E19.37324
G1 X153.472 Y260.657 E19.41818
G1 X152.418 Y259.808 E19.45422
G1 X151.472 Y258.845 E19.49021
G1 X150.458 Y257.513 E19.53481
G1 X149.783 Y256.346 E19.57076
G1 X149.248 Y255.110 E19.60664
G1 X148.780 Y253.499 E19.65136
G1 X148.570 Y252.172 E19.68718
G1 X148.512 Y251.032 E19.71760
G1 X148.511 Y200.985 E21.05141
G1 X148.662 Y199.125 E21.10113
G1 X148.944 Y197.818 E21.13678
G1 X149.348 Y196.618 E21.17051
G1 X171.984 Y141.277 E22.76403
G1 X172.332 Y141.419 F7800.000
G1 F1800.000
G1 X172.791 Y140.675 E22.78732
G1 X173.325 Y140.018 E22.80989
G1 X173.938 Y139.434 E22.83246
G1 X174.619 Y138.930 E22.85503
G1 X175.358 Y138.516 E22.87761
G1 X176.143 Y138.197 E22.90018
G1 X176.961 Y137.979 E22.92275
G1 X177.800 Y137.866 E22.94532
G1 X221.692 Y137.848 E24.11509
G1 X222.639 Y137.916 E24.14040
G1 X223.561 Y138.114 E24.16553
G1 X224.453 Y138.441 E24.19083
G1 X225.284 Y138.886 E24.21597
G1 X226.050 Y139.447 E24.24127
G1 X226.725 Y140.106 E24.26641
G1 X227.303 Y140.851 E24.29154
G1 X227.773 Y141.676 E24.31684
G1 X250.298 Y196.747 E25.90258
G1 X250.843 Y198.539 E25.95248
G1 X251.046 Y199.780 E25.98600
G1 X251.111 Y200.935 E26.01682
G1 X251.111 Y251.119 E27.35431
G1 X251.031 Y252.340 E27.38689
G1 X250.729 Y253.935 E27.43018
G1 X250.336 Y255.151 E27.46424
G1 X249.806 Y256.319 E27.49840
G1 X248.937 Y257.728 E27.54253
G1 X248.087 Y258.775 E27.57849
G1 X246.802 Y259.974 E27.62531
G1 X245.715 Y260.751 E27.66092
G1 X244.522 Y261.401 E27.69713
G1 X242.893 Y262.027 E27.74365
G1 X241.580 Y262.336 E27.77958
G1 X239.977 Y262.499 E27.82253
G1 X160.297 Y262.509 E29.94609
G1 X159.065 Y262.429 E29.97901
G1 X157.462 Y262.127 E30.02247
G1 X156.246 Y261.734 E30.05653
G1 X155.079 Y261.204 E30.09069
G1 X153.686 Y260.346 E30.13431
G1 X152.670 Y259.527 E30.16907
G1 X151.753 Y258.594 E30.20395
G1 X150.766 Y257.295 E30.24741
G1 X150.116 Y256.169 E30.28208
G1 X149.600 Y254.977 E30.31669
G1 X149.146 Y253.406 E30.36026
G1 X148.944 Y252.119 E30.39498
G1 X148.889 Y251.035 E30.42392
G1 X148.888 Y200.985 E31.75781
G1 X149.037 Y199.165 E31.80648
G1 X149.308 Y197.917 E31.84051
G1 X149.697 Y196.760 E31.87303
G1 X172.309 Y141.474 E33.46494
G1 X172.657 Y141.617 F7800.000
G1 F1800.000
G1 X173.101 Y140.890 E33.48764
G1 X173.609 Y140.267 E33.50908
G1 X174.188 Y139.717 E33.53035
G1 X174.835 Y139.240 E33.55178
G1 X175.538 Y138.848 E33.57321
G1 X176.284 Y138.548 E33.59465
G1 X177.056 Y138.345 E33.61592
G1 X177.853 Y138.240 E33.63735
G1 X221.692 Y138.225 E34.80571
G1 X222.587 Y138.289 E34.82964
G1 X223.459 Y138.477 E34.85339
G1 X224.301 Y138.786 E34.87732
G1 X225.092 Y139.211 E34.90124
G1 X225.811 Y139.739 E34.92500
G1 X226.453 Y140.366 E34.94892
G1 X227.000 Y141.078 E34.97284
G1 X227.443 Y141.859 E34.99677
G1 X249.949 Y196.890 E36.58132
G1 X250.479 Y198.639 E36.63002
G1 X250.672 Y199.828 E36.66214
G1 X250.734 Y200.939 E36.69179
G1 X250.734 Y251.110 E38.02890
G1 X250.657 Y252.293 E38.06050
G1 X250.363 Y253.847 E38.10264
G1 X249.984 Y255.018 E38.13544
G1 X249.470 Y256.147 E38.16851
G1 X248.627 Y257.514 E38.21131
G1 X247.807 Y258.522 E38.24596
G1 X246.561 Y259.685 E38.29137
G1 X245.507 Y260.436 E38.32585
G1 X244.363 Y261.059 E38.36057
G1 X242.777 Y261.668 E38.40586
G1 X241.512 Y261.965 E38.44048
G1 X239.945 Y262.123 E38.48245
G1 X160.307 Y262.132 E40.60492
G1 X159.111 Y262.055 E40.63685
G1 X157.557 Y261.762 E40.67899
G1 X156.386 Y261.384 E40.71180
G1 X155.250 Y260.868 E40.74503
G1 X153.899 Y260.035 E40.78732
G1 X152.921 Y259.247 E40.82081
G1 X152.042 Y258.352 E40.85425
G1 X151.078 Y257.083 E40.89672
G1 X150.451 Y255.997 E40.93012
G1 X149.955 Y254.849 E40.96346
G1 X149.513 Y253.320 E41.00588
G1 X149.317 Y252.062 E41.03982
G1 X149.265 Y200.985 E42.40107
G1 X149.413 Y199.205 E42.44867
G1 X149.674 Y198.010 E42.48128
G1 X150.048 Y196.896 E42.51259
G1 X172.635 Y141.672 E44.10271
G1 E32.10271 F2400.00000
G92 E0
G1 Z1.200 F7800.000
G1 X185.168 Y152.923
G1 Z0.200
G1 E12.00000 F2400.00000
G1 F1800.000
G1 X185.676 Y152.381 E12.01978
G1 X186.197 Y151.865 E12.03933
G1 X186.736 Y151.368 E12.05888
G1 X187.294 Y150.892 E12.07843
G1 X187.869 Y150.436 E12.09797
G1 X188.460 Y150.001 E12.11752
G1 X189.067 Y149.588 E12.13710
G1 X189.737 Y149.170 E12.15814
G1 X190.964 Y148.493 E12.19549
G1 X191.632 Y148.170 E12.21526
G1 X192.303 Y147.875 E12.23481
G1 X192.987 Y147.605 E12.25439
G1 X193.731 Y147.344 E12.27542
G1 X195.077 Y146.951 E12.31277
G1 X195.799 Y146.782 E12.33255
G1 X196.519 Y146.641 E12.35210
G1 X197.244 Y146.527 E12.37165
G1 X197.972 Y146.440 E12.39120
G1 X198.704 Y146.379 E12.41078
G1 X199.493 Y146.345 E12.43181
G1 X200.894 Y146.359 E12.46916
G1 X201.636 Y146.406 E12.48897
G1 X202.421 Y146.488 E12.51000
G1 X203.805 Y146.707 E12.54735
G1 X204.530 Y146.862 E12.56713
G1 X205.241 Y147.042 E12.58668
G1 X205.945 Y147.248 E12.60623
G1 X206.641 Y147.480 E12.62578
G1 X207.328 Y147.737 E12.64533
G1 X208.006 Y148.020 E12.66491
G1 X208.722 Y148.352 E12.68594
G1 X209.961 Y149.008 E12.72329
G1 X210.596 Y149.391 E12.74307
G1 X211.210 Y149.792 E12.76262
G1 X211.809 Y150.216 E12.78217
G1 X212.392 Y150.661 E12.80171
G1 X212.959 Y151.127 E12.82126
G1 X213.507 Y151.614 E12.84081
G1 X214.038 Y152.121 E12.86036
G1 X214.550 Y152.647 E12.87994
G1 X215.078 Y153.234 E12.90097
G1 X215.958 Y154.325 E12.93832
G1 X216.392 Y154.927 E12.95810
G1 X216.799 Y155.537 E12.97765
G1 X217.183 Y156.162 E12.99720
G1 X217.544 Y156.800 E13.01675
G1 X217.881 Y157.452 E13.03630
G1 X218.194 Y158.115 E13.05585
G1 X218.483 Y158.790 E13.07540
G1 X218.746 Y159.474 E13.09495
G1 X218.984 Y160.168 E13.11450
G1 X219.197 Y160.870 E13.13405
G1 X219.383 Y161.579 E13.15359
G1 X219.544 Y162.295 E13.17314
G1 X219.678 Y163.016 E13.19269
G1 X219.785 Y163.742 E13.21224
G1 X219.866 Y164.471 E13.23179
G1 X219.920 Y165.203 E13.25134
G1 X219.947 Y165.936 E13.27089
G1 X219.947 Y166.669 E13.29044
G1 X219.920 Y167.402 E13.30999
G1 X219.866 Y168.134 E13.32954
G1 X219.785 Y168.863 E13.34909
G1 X219.678 Y169.588 E13.36864
G1 X219.544 Y170.310 E13.38819
G1 X219.383 Y171.026 E13.40776
G1 X219.181 Y171.789 E13.42880
G1 X218.749 Y173.123 E13.46615
G1 X218.483 Y173.815 E13.48592
G1 X218.194 Y174.490 E13.50547
G1 X217.881 Y175.153 E13.52502
G1 X217.544 Y175.804 E13.54457
G1 X217.183 Y176.443 E13.56412
G1 X216.799 Y177.068 E13.58367
G1 X216.392 Y177.678 E13.60322
G1 X215.963 Y178.273 E13.62277
G1 X215.513 Y178.852 E13.64232
G1 X215.041 Y179.414 E13.66187
G1 X214.549 Y179.958 E13.68142
G1 X214.038 Y180.484 E13.70097
G1 X213.507 Y180.991 E13.72052
G1 X212.959 Y181.477 E13.74007
G1 X212.392 Y181.944 E13.75961
G1 X211.809 Y182.389 E13.77916
G1 X211.210 Y182.812 E13.79871
G1 X210.596 Y183.214 E13.81826
G1 X209.968 Y183.592 E13.83781
G1 X209.326 Y183.947 E13.85736
G1 X208.672 Y184.278 E13.87691
G1 X208.005 Y184.585 E13.89646
G1 X207.328 Y184.868 E13.91601
G1 X206.641 Y185.125 E13.93556
G1 X205.945 Y185.356 E13.95511
G1 X205.241 Y185.563 E13.97466
G1 X204.530 Y185.743 E13.99421
G1 X203.813 Y185.896 E14.01375
G1 X203.090 Y186.024 E14.03333
G1 X202.308 Y186.131 E14.05437
G1 X200.911 Y186.245 E14.09172
G1 X200.169 Y186.266 E14.11149
G1 X199.436 Y186.259 E14.13104
G1 X198.703 Y186.226 E14.15059
G1 X197.972 Y186.165 E14.17014
G1 X197.243 Y186.077 E14.18972
G1 X196.463 Y185.953 E14.21075
G1 X195.093 Y185.658 E14.24810
G1 X194.377 Y185.463 E14.26788
G1 X193.677 Y185.244 E14.28743
G1 X192.986 Y184.999 E14.30698
G1 X192.303 Y184.729 E14.32653
G1 X191.632 Y184.435 E14.34608
G1 X190.971 Y184.116 E14.36563
G1 X190.323 Y183.773 E14.38518
G1 X189.688 Y183.406 E14.40473
G1 X189.066 Y183.016 E14.42428
G1 X188.459 Y182.603 E14.44385
G1 X187.824 Y182.134 E14.46489
G1 X186.743 Y181.242 E14.50224
G1 X186.196 Y180.739 E14.52204
G1 X185.637 Y180.182 E14.54308
G1 X184.698 Y179.142 E14.58043
G1 X184.231 Y178.565 E14.60021
G1 X183.791 Y177.978 E14.61975
G1 X183.373 Y177.375 E14.63930
G1 X182.978 Y176.757 E14.65885
G1 X182.605 Y176.125 E14.67840
G1 X182.256 Y175.480 E14.69795
G1 X181.931 Y174.823 E14.71750
G1 X181.630 Y174.154 E14.73705
G1 X181.354 Y173.474 E14.75660
G1 X181.103 Y172.785 E14.77615
G1 X180.878 Y172.087 E14.79570
G1 X180.678 Y171.381 E14.81525
G1 X180.505 Y170.668 E14.83480
G1 X180.357 Y169.949 E14.85438
G1 X180.229 Y169.170 E14.87541
G1 X180.076 Y167.777 E14.91276
G1 X180.035 Y167.036 E14.93254
G1 X180.021 Y166.302 E14.95209
G1 X180.035 Y165.568 E14.97166
G1 X180.080 Y164.780 E14.99270
G1 X180.235 Y163.387 E15.03005
G1 X180.357 Y162.655 E15.04983
G1 X180.505 Y161.937 E15.06937
G1 X180.678 Y161.224 E15.08892
G1 X180.878 Y160.518 E15.10847
G1 X181.104 Y159.819 E15.12805
G1 X181.375 Y159.078 E15.14908
G1 X181.927 Y157.790 E15.18644
G1 X182.256 Y157.125 E15.20621
G1 X182.605 Y156.480 E15.22576
G1 X182.978 Y155.848 E15.24531
G1 X183.373 Y155.230 E15.26486
G1 X183.792 Y154.626 E15.28444
G1 X184.267 Y153.996 E15.30547
G1 X185.130 Y152.969 E15.34122
G1 X185.450 Y153.173 F7800.000
G1 F1800.000
G1 X185.946 Y152.644 E15.36054
G1 X186.457 Y152.138 E15.37972
G1 X186.987 Y151.650 E15.39890
G1 X187.534 Y151.183 E15.41808
G1 X188.098 Y150.736 E15.43726
G1 X188.677 Y150.309 E15.45644
G1 X189.273 Y149.904 E15.47564
G1 X189.928 Y149.496 E15.49621
G1 X191.137 Y148.828 E15.53302
G1 X191.790 Y148.513 E15.55234
G1 X192.449 Y148.224 E15.57152
G1 X193.118 Y147.959 E15.59071
G1 X193.847 Y147.703 E15.61128
G1 X195.172 Y147.316 E15.64809
G1 X195.878 Y147.151 E15.66741
G1 X196.585 Y147.013 E15.68659
G1 X197.295 Y146.901 E15.70577
G1 X198.010 Y146.815 E15.72495
G1 X198.728 Y146.756 E15.74415
G1 X199.499 Y146.722 E15.76471
G1 X200.880 Y146.736 E15.80152
G1 X201.604 Y146.782 E15.82086
G1 X202.372 Y146.862 E15.84143
G1 X203.736 Y147.077 E15.87824
G1 X204.445 Y147.230 E15.89755
G1 X205.142 Y147.406 E15.91673
G1 X205.833 Y147.608 E15.93591
G1 X206.516 Y147.836 E15.95509
G1 X207.190 Y148.088 E15.97427
G1 X207.855 Y148.365 E15.99347
G1 X208.555 Y148.690 E16.01404
G1 X209.775 Y149.337 E16.05085
G1 X210.396 Y149.711 E16.07017
G1 X210.998 Y150.104 E16.08935
G1 X211.586 Y150.520 E16.10853
G1 X212.158 Y150.957 E16.12771
G1 X212.714 Y151.414 E16.14689
G1 X213.252 Y151.892 E16.16607
G1 X213.772 Y152.389 E16.18525
G1 X214.275 Y152.905 E16.20444
G1 X214.791 Y153.479 E16.22501
G1 X215.658 Y154.554 E16.26182
G1 X216.082 Y155.142 E16.28114
G1 X216.481 Y155.740 E16.30032
G1 X216.858 Y156.353 E16.31950
G1 X217.212 Y156.980 E16.33868
G1 X217.543 Y157.619 E16.35786
G1 X217.850 Y158.270 E16.37704
G1 X218.133 Y158.932 E16.39622
G1 X218.392 Y159.603 E16.41540
G1 X218.625 Y160.284 E16.43458
G1 X218.834 Y160.973 E16.45376
G1 X219.017 Y161.669 E16.47294
G1 X219.174 Y162.371 E16.49212
G1 X219.306 Y163.079 E16.51130
G1 X219.411 Y163.790 E16.53048
G1 X219.490 Y164.506 E16.54966
G1 X219.543 Y165.223 E16.56884
G1 X219.570 Y165.943 E16.58802
G1 X219.570 Y166.662 E16.60720
G1 X219.543 Y167.381 E16.62638
G1 X219.490 Y168.099 E16.64556
G1 X219.411 Y168.814 E16.66474
G1 X219.306 Y169.526 E16.68392
G1 X219.174 Y170.234 E16.70310
G1 X219.017 Y170.937 E16.72230
G1 X218.819 Y171.683 E16.74286
G1 X218.394 Y172.997 E16.77967
G1 X218.133 Y173.673 E16.79899
G1 X217.850 Y174.335 E16.81817
G1 X217.543 Y174.986 E16.83735
G1 X217.212 Y175.625 E16.85653
G1 X216.858 Y176.251 E16.87571
G1 X216.481 Y176.865 E16.89489
G1 X216.082 Y177.463 E16.91407
G1 X215.661 Y178.047 E16.93325
G1 X215.219 Y178.615 E16.95243
G1 X214.757 Y179.166 E16.97161
G1 X214.274 Y179.700 E16.99079
G1 X213.772 Y180.216 E17.00997
G1 X213.252 Y180.713 E17.02915
G1 X212.714 Y181.191 E17.04833
G1 X212.158 Y181.648 E17.06751
G1 X211.586 Y182.085 E17.08669
G1 X210.998 Y182.501 E17.10587
G1 X210.396 Y182.894 E17.12505
G1 X209.779 Y183.265 E17.14423
G1 X209.150 Y183.614 E17.16341
G1 X208.508 Y183.939 E17.18259
G1 X207.854 Y184.240 E17.20177
G1 X207.190 Y184.517 E17.22095
G1 X206.516 Y184.769 E17.24013
G1 X205.833 Y184.997 E17.25931
G1 X205.142 Y185.199 E17.27849
G1 X204.445 Y185.375 E17.29767
G1 X203.741 Y185.526 E17.31685
G1 X203.031 Y185.651 E17.33605
G1 X202.267 Y185.756 E17.35662
G1 X200.890 Y185.869 E17.39342
G1 X200.166 Y185.889 E17.41274
G1 X199.446 Y185.882 E17.43192
G1 X198.727 Y185.849 E17.45110
G1 X198.010 Y185.790 E17.47028
G1 X197.295 Y185.704 E17.48948
G1 X196.533 Y185.582 E17.51005
G1 X195.182 Y185.292 E17.54686
G1 X194.483 Y185.101 E17.56618
G1 X193.796 Y184.886 E17.58536
G1 X193.118 Y184.646 E17.60454
G1 X192.449 Y184.381 E17.62372
G1 X191.790 Y184.092 E17.64290
G1 X191.142 Y183.779 E17.66208
G1 X190.505 Y183.442 E17.68126
G1 X189.882 Y183.083 E17.70044
G1 X189.273 Y182.700 E17.71962
G1 X188.677 Y182.295 E17.73881
G1 X188.056 Y181.837 E17.75938
G1 X186.991 Y180.958 E17.79619
G1 X186.457 Y180.467 E17.81553
G1 X185.910 Y179.922 E17.83609
G1 X184.984 Y178.897 E17.87290
G1 X184.529 Y178.333 E17.89222
G1 X184.097 Y177.757 E17.91140
G1 X183.687 Y177.166 E17.93058
G1 X183.299 Y176.560 E17.94976
G1 X182.934 Y175.940 E17.96894
G1 X182.591 Y175.307 E17.98812
G1 X182.272 Y174.662 E18.00730
G1 X181.977 Y174.005 E18.02648
G1 X181.706 Y173.339 E18.04566
G1 X181.460 Y172.662 E18.06484
G1 X181.239 Y171.978 E18.08402
G1 X181.043 Y171.285 E18.10320
G1 X180.873 Y170.586 E18.12238
G1 X180.728 Y169.880 E18.14158
G1 X180.603 Y169.119 E18.16215
G1 X180.452 Y167.746 E18.19896
G1 X180.412 Y167.022 E18.21827
G1 X180.399 Y166.302 E18.23745
G1 X180.412 Y165.582 E18.25665
G1 X180.456 Y164.812 E18.27722
G1 X180.609 Y163.439 E18.31403
G1 X180.728 Y162.724 E18.33335
G1 X180.873 Y162.019 E18.35253
G1 X181.043 Y161.320 E18.37171
G1 X181.239 Y160.627 E18.39089
G1 X181.460 Y159.942 E18.41008
G1 X181.726 Y159.217 E18.43065
G1 X182.270 Y157.948 E18.46746
G1 X182.591 Y157.298 E18.48678
G1 X182.934 Y156.665 E18.50596
G1 X183.299 Y156.045 E18.52514
G1 X183.687 Y155.439 E18.54432
G1 X184.098 Y154.847 E18.56352
G1 X184.562 Y154.231 E18.58409
G1 X185.412 Y153.219 E18.61929
G1 X185.732 Y153.424 F7800.000
G1 F1800.000
G1 X186.216 Y152.907 E18.63816
G1 X186.718 Y152.411 E18.65697
G1 X187.237 Y151.933 E18.67578
G1 X187.774 Y151.474 E18.69459
G1 X188.327 Y151.035 E18.71340
G1 X188.895 Y150.617 E18.73221
G1 X189.479 Y150.220 E18.75103
G1 X190.119 Y149.821 E18.77113
G1 X191.310 Y149.163 E18.80739
G1 X191.947 Y148.855 E18.82625
G1 X192.594 Y148.572 E18.84507
